X:1
T:Title
%%score { ( 1 3 ) | ( 2 4 ) }
L:1/8
Q:1/4=100
M:4/4
K:Bb
V:1 treble nm="Grand Piano"
V:3 treble 
V:2 bass 
V:4 bass 
V:1
 [DF]2 [DB]>[Ec] [Fd] [Fd]2 [Fc] | [B,GB][B,EG] [B,GB]>[B,EG] [B,DF]3 [B,DF] | %2
w: Robert~Lowry * * * * *||
 [B,DF]2 [DFB]>[DFB] [DFB][CFA] [C=Ec]>[Ed] | [Fc]6 [EF]2 | [DF]2 [DB]>[Ec] [Fd] [Fd]2 [DB] | %5
w: |||
 cB G>[FA] [GB]3 G | F2 B>B BA d>c | [DB]6 z2 | GG G>G [Ge]2 [EG]2 | [DF][DF] [DB]>[Ec] [Fd]4 | %10
w: |||||
 cc c>c c2 Bc | [Fd][DB] [B,D]>[CE] [DF]4 | GG G>G [Ge]2 [EG]2 | [DF][DF] [FB]>c d4 | %14
w: ||||
 cc c>c cB d>c | B2- [EB-]>[EB-] [DB]4 |] %16
w: ||
V:2
 [B,,B,]2 [B,,B,]>[B,,B,] [B,,B,] [B,,B,]2 [D,B,] | E,E, E,>E, B,,3 B,, | %2
 B,,2 B,,>B,, F,F, C,>[C,B,] | [F,A,]6 [F,A,]2 | %4
 [B,,B,]2 [B,,B,]>[B,,B,] [B,,B,] [B,,B,]2 [B,,B,] | [E,G,E][E,G,E] [E,B,E]>[E,C] [E,B,]3 [E,B,E] | %6
 [F,B,D]2 [F,DF]>[F,DF] [F,DF][F,CF] [F,B,F]>[F,A,E] | [B,,B,]6 z2 | %8
 [E,B,E][E,B,E] [E,B,E]>[E,B,E] [E,B,]2 [E,B,]2 | [B,,B,][B,,B,] [B,,B,]>[B,,B,] [B,,B,]4 | %10
 [F,A,E][F,A,E] [F,A,E]>[F,A,E] [F,A,E]2 [F,B,D][F,A,F] | [B,,B,][B,,B,] [B,,F,]>[B,,F,] [B,,B,]4 | %12
 [E,B,E][E,B,E] [E,B,E]>[E,B,E] [E,B,]2 [E,B,]2 | [B,,B,][B,,B,] [D,B,]>[K:treble][F,A,F] [B,F]4 | %14
 [F,A,E][F,A,E] [F,A,E]>[F,A,E] [F,A,E][F,B,D] [F,A,F]>[F,A,E] | z2 G,>G, F,4 |] %16
V:3
 x8 | x8 | x8 | x8 | x8 | x8 | x8 | x8 | x8 | x8 | x8 | x8 | x8 | x8 | x8 | [B,D]2 z2 z4 |] %16
V:4
 x8 | x8 | x8 | x8 | x8 | x8 | x8 | x8 | x8 | x8 | x8 | x8 | x8 | x7/2[K:treble] x9/2 | x8 | %15
 B,,8 |] %16

